X: 3295
T: Mallebrok II
B:[[Notböcker/Melodier til gamle danske Almuedanse for Violin solo]]
O:Danmark
Z:Søren Bak Vestergaard
M: 6/8
L: 1/8
K: F
(!upbow!F/G/)|A2 A AGA|B3 A2 A|G2 G GFG|A2 F F2 (!upbow!F/G/)|\
A2 A AGA|B3 A2 c|A2 A G2 G|(F3 F) z (A/B/)|c2 c d2 d|(c3 c2) (A/B/)|\
c2 c d2 d|(c3 c) z (A/B/)|A2 A AGA|B3 A2 c|A2 A AGA|(F3 F) z:|
(:musicend:)
(:music:)
